svg/Pictogram/pictograms-recycle-plastic-5-pp.svg

<?xml version="1.0" encoding="UTF-8" standalone="no"?>
<!-- Created with Inkscape (http://www.inkscape.org/) --><svg height="89" id="svg2241" inkscape:export-filename="M:\recyclage4.jpg.png" inkscape:export-xdpi="104" inkscape:export-ydpi="104" inkscape:output_extension="org.inkscape.output.svg.inkscape" inkscape:version="0.46" sodipodi:docbase="M:\" sodipodi:docname="pictograms-recycle-plastic-5-PP.svg" sodipodi:modified="TRUE" sodipodi:version="0.32" version="1.0" width="89" xmlns="http://www.w3.org/2000/svg" xmlns:cc="http://creativecommons.org/ns#" xmlns:dc="http://purl.org/dc/elements/1.1/" xmlns:inkscape="http://www.inkscape.org/namespaces/inkscape" xmlns:rdf="http://www.w3.org/1999/02/22-rdf-syntax-ns#" xmlns:sodipodi="http://sodipodi.sourceforge.net/DTD/sodipodi-0.dtd" xmlns:svg="http://www.w3.org/2000/svg">
  <metadata>
    <rdf:RDF xmlns:cc="http://web.resource.org/cc/" xmlns:dc="http://purl.org/dc/elements/1.1/" xmlns:rdf="http://www.w3.org/1999/02/22-rdf-syntax-ns#">
      <cc:Work rdf:about="">
        <dc:title></dc:title>
        <dc:description></dc:description>
        <dc:subject>
          <rdf:Bag>
            <rdf:li>unsorted</rdf:li>
          </rdf:Bag>
        </dc:subject>
        <dc:publisher>
          <cc:Agent rdf:about="http://www.openclipart.org/">
            <dc:title>Open Clip Art Library, Source: Open Clip Art Library, Source: Open Clip Art Library</dc:title>
          </cc:Agent>
        </dc:publisher>
        <dc:creator>
          <cc:Agent>
            <dc:title></dc:title>
          </cc:Agent>
        </dc:creator>
        <dc:rights>
          <cc:Agent>
            <dc:title></dc:title>
          </cc:Agent>
        </dc:rights>
        <dc:date></dc:date>
        <dc:format>image/svg+xml</dc:format>
        <dc:type rdf:resource="http://purl.org/dc/dcmitype/StillImage"/>
        <cc:license rdf:resource="http://en.wikipedia.org/wiki/Public_domain"/>
        <dc:language>en</dc:language>
      </cc:Work>
    </rdf:RDF>
  </metadata>
  <defs id="defs2244">
    <inkscape:perspective id="perspective49" inkscape:persp3d-origin="165 : 110 : 1" inkscape:vp_x="0 : 165 : 1" inkscape:vp_y="0 : 1000 : 0" inkscape:vp_z="330 : 165 : 1" sodipodi:type="inkscape:persp3d"/>
  </defs>
  <sodipodi:namedview bordercolor="#666666" borderopacity="1.0" gridtolerance="10.0" guidetolerance="10.0" id="base" inkscape:current-layer="svg2241" inkscape:cx="37.499954" inkscape:cy="183.13118" inkscape:guide-bbox="true" inkscape:pageopacity="0.0" inkscape:pageshadow="2" inkscape:window-height="712" inkscape:window-width="1024" inkscape:window-x="110" inkscape:window-y="54" inkscape:zoom="0.72898565" objecttolerance="10.0" pagecolor="#ffffff" showgrid="false" showguides="true"/>
  <path d="M 51.110838,40.581486 C 51.110822,41.508596 50.936989,42.369766 50.589339,43.164996 C 50.241658,43.960236 49.736145,44.641586 49.072797,45.209036 C 48.33749,45.816456 47.492304,46.266016 46.537234,46.557736 C 45.582142,46.849456 44.493189,46.995316 43.270374,46.995316 C 41.839742,46.987326 40.630906,46.873436 39.64386,46.653646 C 38.656805,46.433856 37.85158,46.188096 37.228182,45.916356 L 37.228182,41.972146 L 37.731698,41.972146 C 38.458995,42.403736 39.242242,42.763386 40.081439,43.051106 C 40.920627,43.338836 41.755823,43.482696 42.587031,43.482696 C 43.090539,43.482696 43.636014,43.424756 44.223458,43.308866 C 44.810884,43.192976 45.276436,42.983176 45.620115,42.679466 C 45.891844,42.431706 46.097646,42.179956 46.237522,41.924196 C 46.377376,41.668446 46.447309,41.272826 46.44732,40.737336 C 46.447309,40.321736 46.353399,39.964086 46.165591,39.664366 C 45.977761,39.364656 45.735994,39.122896 45.440288,38.939066 C 45.008693,38.675326 44.489193,38.501496 43.881786,38.417566 C 43.274362,38.333656 42.722893,38.291696 42.227376,38.291686 C 41.508062,38.291696 40.818725,38.353636 40.159364,38.477506 C 39.499994,38.601396 38.922549,38.723276 38.427029,38.843156 L 37.899536,38.843156 L 37.899536,28.772836 L 50.595333,28.772836 L 50.595333,32.189546 L 42.227376,32.189546 L 42.227376,35.102746 C 42.475131,35.086776 42.788829,35.072786 43.168472,35.060786 C 43.548099,35.048816 43.881778,35.042816 44.16951,35.042806 C 45.152555,35.042816 46.029711,35.136726 46.80098,35.324536 C 47.572227,35.512366 48.237587,35.774116 48.797062,36.109786 C 49.524348,36.549366 50.091802,37.130806 50.499425,37.854106 C 50.907018,38.577416 51.110822,39.486546 51.110838,40.581486 L 51.110838,40.581486 z" id="text2290" style="font-size:24.55240059px;font-style:normal;font-variant:normal;font-weight:bold;font-stretch:normal;text-align:center;line-height:100%;text-anchor:middle;fill:#000000;fill-opacity:1;stroke:none;stroke-width:1px;stroke-linecap:butt;stroke-linejoin:miter;stroke-opacity:1;font-family:Verdana"/>
  <path d="M 42.545052,76.783026 C 42.545035,77.582276 42.405169,78.363516 42.125455,79.126776 C 41.845708,79.890056 41.446092,80.531436 40.926607,81.050926 C 40.215276,81.754256 39.42204,82.285746 38.546895,82.645396 C 37.671724,83.005056 36.582772,83.184886 35.280035,83.184876 L 32.414789,83.184876 L 32.414789,88.999286 L 27.811214,88.999286 L 27.811214,71.148446 L 35.387931,71.148446 C 36.522829,71.148466 37.479908,71.246366 38.259171,71.442166 C 39.038409,71.637996 39.727745,71.931706 40.327184,72.323316 C 41.046477,72.794876 41.595948,73.398296 41.975599,74.133576 C 42.355217,74.868886 42.545035,75.752036 42.545052,76.783026 L 42.545052,76.783026 z M 37.785626,76.890926 C 37.785614,76.387426 37.649745,75.953836 37.378018,75.590176 C 37.106268,75.226536 36.790572,74.972786 36.430929,74.828906 C 35.951379,74.637106 35.483829,74.531206 35.028277,74.511216 C 34.572706,74.491246 33.96529,74.481256 33.206028,74.481246 L 32.414789,74.481246 L 32.414789,79.828106 L 33.733521,79.828106 C 34.516759,79.828106 35.162138,79.780156 35.66966,79.684236 C 36.177162,79.588346 36.602752,79.396526 36.946433,79.108796 C 37.242137,78.853046 37.455931,78.547346 37.587817,78.191676 C 37.719678,77.836026 37.785614,77.402446 37.785626,76.890926 L 37.785626,76.890926 z M 60.527767,76.783026 C 60.52775,77.582276 60.387885,78.363516 60.108171,79.126776 C 59.828423,79.890056 59.428808,80.531436 58.909323,81.050926 C 58.197992,81.754256 57.404755,82.285746 56.52961,82.645396 C 55.654439,83.005056 54.565487,83.184886 53.26275,83.184876 L 50.397504,83.184876 L 50.397504,88.999286 L 45.793929,88.999286 L 45.793929,71.148446 L 53.370647,71.148446 C 54.505545,71.148466 55.462624,71.246366 56.241887,71.442166 C 57.021124,71.637996 57.710461,71.931706 58.309899,72.323316 C 59.029192,72.794876 59.578664,73.398296 59.958315,74.133576 C 60.337933,74.868886 60.52775,75.752036 60.527767,76.783026 L 60.527767,76.783026 z M 55.768342,76.890926 C 55.76833,76.387426 55.632461,75.953836 55.360734,75.590176 C 55.088983,75.226536 54.773287,74.972786 54.413644,74.828906 C 53.934095,74.637106 53.466545,74.531206 53.010992,74.511216 C 52.555421,74.491246 51.948006,74.481256 51.188744,74.481246 L 50.397504,74.481246 L 50.397504,79.828106 L 51.716237,79.828106 C 52.499475,79.828106 53.144854,79.780156 53.652376,79.684236 C 54.159877,79.588346 54.585468,79.396526 54.929149,79.108796 C 55.224853,78.853046 55.438647,78.547346 55.570532,78.191676 C 55.702393,77.836026 55.76833,77.402446 55.768342,76.890926 L 55.768342,76.890926 z" id="text2310" style="font-size:24.55240059px;font-style:normal;font-variant:normal;font-weight:bold;font-stretch:normal;text-align:center;line-height:100%;text-anchor:middle;fill:#000000;fill-opacity:1;stroke:none;stroke-width:1px;stroke-linecap:butt;stroke-linejoin:miter;stroke-opacity:1;font-family:Verdana"/>
  <path d="M 51.592924,67.133566 C 51.338997,66.838166 50.265081,64.935866 49.206446,62.906226 L 47.281658,59.215976 L 49.193311,55.387056 C 51.289948,51.187626 51.780296,50.483966 52.610054,50.483966 C 53.44307,50.483966 53.800906,51.446226 53.800906,53.686296 L 53.800906,55.701356 L 59.64965,55.701356 C 63.002971,55.701356 66.08992,55.552406 66.88481,55.352246 C 68.663594,54.904346 70.213909,53.445036 70.656292,51.802156 C 71.332017,49.292706 71.132363,48.853276 62.701826,34.294476 C 61.308874,31.888966 60.169185,29.576096 60.169185,29.154756 C 60.169185,28.104796 60.641254,27.618306 62.868958,26.372506 C 64.491537,25.465106 64.895037,25.352766 65.507512,25.637906 C 65.962041,25.849516 67.085096,27.476716 68.531594,30.019536 C 69.797163,32.244296 72.374398,36.729366 74.258782,39.986356 C 76.28593,43.490106 77.836794,46.541196 78.056839,47.458436 C 78.627164,49.835826 78.307031,53.372276 77.33715,55.408666 C 76.310089,57.565116 74.233067,59.742756 72.240026,60.752706 C 69.351092,62.216636 67.715908,62.453266 60.488336,62.453266 L 53.800906,62.453266 L 53.800906,64.576496 C 53.800906,65.744276 53.717078,66.918186 53.614618,67.185186 C 53.365844,67.833476 52.168298,67.802896 51.592924,67.133566 z M 18.967186,62.164676 C 17.223496,61.737146 14.72214,60.241296 13.286893,58.767776 C 10.653998,56.064686 9.5448858,52.478166 10.170453,48.690206 C 10.636538,45.867956 11.350239,44.297856 14.774458,38.561646 C 16.320869,35.971116 17.586113,33.740066 17.586113,33.603736 C 17.586113,33.467416 16.85649,32.944106 15.964728,32.440826 C 13.85087,31.247836 13.451323,30.765776 13.892754,29.940946 C 14.079205,29.592566 14.537638,29.293696 14.911494,29.276806 C 16.504874,29.204806 20.931037,29.337706 22.395391,29.501526 L 23.982167,29.679036 L 26.461886,33.353906 C 28.997028,37.110916 29.39424,38.250836 28.360949,38.803836 C 27.906248,39.047176 27.342488,38.882256 25.761887,38.043466 L 23.743475,36.972346 L 23.309987,37.666786 C 22.060518,39.668386 18.625266,45.605576 17.999082,46.845676 C 16.937721,48.947616 17.002411,51.237386 18.168643,52.847316 C 19.830445,55.141366 20.260557,55.217386 32.572923,55.393126 C 45.280812,55.574506 44.286851,55.244816 44.286851,59.278616 C 44.286851,61.474986 44.206694,61.860756 43.693217,62.135556 C 43.009157,62.501656 20.449893,62.528226 18.967186,62.164676 z M 25.536048,27.220446 C 23.493445,26.020776 23.110403,25.638446 23.110403,24.799326 C 23.110403,24.386546 25.627884,19.675716 28.707681,14.325406 C 34.789019,3.7607357 35.806136,2.4239057 38.922707,0.89945572 C 40.596463,0.080745724 41.041454,0.0018357242 43.99438,4.572425e-05 C 47.077845,-0.0018142758 47.330173,0.048225724 49.316321,1.0555757 C 52.361878,2.6002357 54.309353,4.9048557 57.637219,10.902406 C 59.156399,13.640306 60.537471,16.065436 60.706269,16.291586 C 60.952523,16.621516 61.343941,16.492636 62.686929,15.639426 C 65.128285,14.088426 66.452776,14.310176 65.963597,16.188016 C 65.750639,17.005516 61.627177,23.498596 61.123162,23.810096 C 60.625089,24.117916 52.469807,24.502966 51.690023,24.255476 C 51.258373,24.118476 51.038761,23.793726 51.038761,23.292436 C 51.038761,22.701016 51.437268,22.287266 52.866316,21.394966 C 53.87147,20.767336 54.700113,20.130716 54.707746,19.980246 C 54.726446,19.611526 49.63065,10.699406 48.659305,9.4020157 C 47.789647,8.2404557 45.820529,7.2238457 44.440304,7.2238457 C 43.200969,7.2238457 41.247439,8.1637757 40.243178,9.2432657 C 39.791534,9.7287457 37.197757,13.992956 34.479229,18.719296 C 31.760699,23.445636 29.307159,27.485276 29.026915,27.696266 C 28.242027,28.287216 27.083482,28.129296 25.536048,27.220446 z" id="path2322" sodipodi:nodetypes="ccccscccssssssssssscccsccssssssscccscccsssssccsssssssssssssssssssc" style="fill:#000000"/>
</svg>

<svg xmlns="http://www.w3.org/2000/svg" viewBox="0 0 89 89"><path d="m51.11 40.581c0 .927-.174 1.788-.521 2.584-.348.795-.853 1.477-1.517 2.044-.735.607-1.58 1.057-2.536 1.349-.955.292-2.044.438-3.267.438-1.431-.008-2.639-.122-3.627-.342-.987-.22-1.792-.466-2.416-.737v-3.944h.504c.727.432 1.511.791 2.35 1.079.839.288 1.674.432 2.506.432.504 0 1.049-.058 1.636-.174.587-.116 1.053-.326 1.397-.629.272-.248.478-.5.617-.755.14-.256.21-.651.21-1.187 0-.416-.094-.773-.282-1.073-.188-.3-.43-.541-.725-.725-.432-.264-.951-.438-1.559-.521-.607-.084-1.159-.126-1.654-.126-.719 0-1.409.062-2.068.186-.659.124-1.237.246-1.732.366h-.527v-10.07h12.696v3.417h-8.368v2.913c.248-.016.561-.03.941-.042.38-.012.713-.018 1-.018.983 0 1.86.094 2.631.282.771.188 1.437.45 1.996.785.727.44 1.295 1.021 1.702 1.744.408.723.611 1.632.611 2.727"/><path d="m42.545 76.78c0 .799-.14 1.58-.42 2.344-.28.763-.679 1.405-1.199 1.924-.711.703-1.505 1.235-2.38 1.594-.875.36-1.964.539-3.267.539h-2.865v5.814h-4.604v-17.851h7.577c1.135 0 2.092.098 2.871.294.779.196 1.469.49 2.068.881.719.472 1.269 1.075 1.648 1.81.38.735.569 1.618.569 2.649m-4.759.108c0-.503-.136-.937-.408-1.301-.272-.364-.587-.617-.947-.761-.48-.192-.947-.298-1.403-.318-.456-.02-1.063-.03-1.822-.03h-.791v5.347h1.319c.783 0 1.429-.048 1.936-.144.508-.096.933-.288 1.277-.575.296-.256.509-.561.641-.917.132-.356.198-.789.198-1.301m22.742-.108c0 .799-.14 1.58-.42 2.344-.28.763-.679 1.405-1.199 1.924-.711.703-1.505 1.235-2.38 1.594-.875.36-1.964.539-3.267.539h-2.865v5.814h-4.604v-17.851h7.577c1.135 0 2.092.098 2.871.294.779.196 1.469.49 2.068.881.719.472 1.269 1.075 1.648 1.81.38.735.569 1.618.569 2.649m-4.759.108c0-.503-.136-.937-.408-1.301-.272-.364-.587-.617-.947-.761-.48-.192-.947-.298-1.403-.318-.456-.02-1.063-.03-1.822-.03h-.791v5.347h1.319c.783 0 1.429-.048 1.936-.144.508-.096.933-.288 1.277-.575.296-.256.509-.561.641-.917.132-.356.198-.789.198-1.301"/><path d="m51.593 67.13c-.254-.295-1.328-2.198-2.386-4.227l-1.925-3.69 1.912-3.829c2.097-4.199 2.587-4.903 3.417-4.903.833 0 1.191.962 1.191 3.202v2.02h5.849c3.353 0 6.44-.149 7.235-.349 1.779-.448 3.329-1.907 3.771-3.55.676-2.509.476-2.949-7.954-17.508-1.393-2.406-2.533-4.718-2.533-5.14 0-1.05.472-1.536 2.7-2.782 1.623-.907 2.026-1.02 2.639-.735.455.212 1.578 1.839 3.02 4.382 1.266 2.225 3.843 6.71 5.727 9.967 2.027 3.504 3.578 6.555 3.798 7.472.57 2.377.25 5.914-.72 7.95-1.027 2.156-3.104 4.334-5.097 5.344-2.889 1.464-4.524 1.701-11.752 1.701h-6.687v2.123c0 1.168-.084 2.342-.186 2.609-.249.648-1.446.618-2.02-.052m-32.626-4.969c-1.744-.428-4.245-1.923-5.68-3.397-2.633-2.703-3.742-6.29-3.116-10.08.466-2.822 1.18-4.392 4.604-10.129 1.546-2.591 2.812-4.822 2.812-4.958 0-.136-.73-.66-1.621-1.163-2.114-1.193-2.513-1.675-2.072-2.5.186-.348.645-.647 1.019-.664 1.593-.072 6.02.061 7.484.225l1.587.178 2.48 3.675c2.535 3.757 2.932 4.897 1.899 5.45-.455.243-1.018.078-2.599-.76l-2.02-1.071-.433.694c-1.249 2-4.685 7.939-5.311 9.179-1.061 2.102-.997 4.392.17 6 1.662 2.294 2.092 2.37 14.404 2.546 12.708.181 11.714-.148 11.714 3.885 0 2.196-.08 2.582-.594 2.857-.684.366-23.24.393-24.726.029m6.569-34.944c-2.043-1.2-2.426-1.582-2.426-2.421 0-.413 2.517-5.124 5.597-10.474 6.081-10.565 7.098-11.902 10.215-13.426 1.674-.819 2.119-.898 5.072-.899 3.083-.002 3.336.048 5.322 1.056 3.046 1.545 4.993 3.849 8.321 9.847 1.519 2.738 2.9 5.163 3.069 5.389.246.33.638.201 1.981-.652 2.441-1.551 3.766-1.329 3.277.549-.213.817-4.336 7.311-4.84 7.622-.498.308-8.653.693-9.433.445-.432-.137-.651-.462-.651-.963 0-.591.399-1.01 1.828-1.897 1.01-.628 1.834-1.264 1.841-1.415.019-.369-5.077-9.281-6.05-10.578-.87-1.162-2.839-2.178-4.219-2.178-1.239 0-3.193.94-4.197 2.02-.452.485-3.045 4.75-5.764 9.476-2.719 4.726-5.172 8.766-5.452 8.977-.785.591-1.943.433-3.491-.476"/></svg>
